X:1
T:Come All You Young Ladies and Gentlemen
M:6/8
L:1/8
K:G
 B| BEE EED| D/2D/2 E2- E2 D| DGG AGB| G B2- B3| BEE E2 D| D2 D
M:6/8
| DGG AGB| GA z z2 G/2G/2| GBB BBB| G3 z2 G| AAA AAA| BA z z2 G/2G/2|\
 GBB BBB| G2 z z2 G| AAA ABG| F A2 z2 z| B3- B2 A| BGE FE^D| E3- E2||\
